public/Frame 1.svg

<svg width="200" height="172" viewBox="0 0 269 172" fill="none" xmlns="http://www.w3.org/2000/svg">
<line x1="1" y1="1" x2="259" y2="1" stroke="#FFC107" stroke-width="2" stroke-linecap="round" stroke-dasharray="4 4"/>
<path d="M260.293 171.707C260.683 172.098 261.317 172.098 261.707 171.707L268.071 165.343C268.462 164.953 268.462 164.319 268.071 163.929C267.681 163.538 267.047 163.538 266.657 163.929L261 169.586L255.343 163.929C254.953 163.538 254.319 163.538 253.929 163.929C253.538 164.319 253.538 164.953 253.929 165.343L260.293 171.707ZM260 5C260 5.55228 260.448 6 261 6C261.552 6 262 5.55228 262 5L260 5ZM262 9C262 8.44772 261.552 8 261 8C260.448 8 260 8.44772 260 9L262 9ZM260 13C260 13.5523 260.448 14 261 14C261.552 14 262 13.5523 262 13L260 13ZM262 17C262 16.4477 261.552 16 261 16C260.448 16 260 16.4477 260 17L262 17ZM260 21C260 21.5523 260.448 22 261 22C261.552 22 262 21.5523 262 21L260 21ZM262 25C262 24.4477 261.552 24 261 24C260.448 24 260 24.4477 260 25L262 25ZM260 29C260 29.5523 260.448 30 261 30C261.552 30 262 29.5523 262 29L260 29ZM262 33C262 32.4477 261.552 32 261 32C260.448 32 260 32.4477 260 33L262 33ZM260 37C260 37.5523 260.448 38 261 38C261.552 38 262 37.5523 262 37L260 37ZM262 41C262 40.4477 261.552 40 261 40C260.448 40 260 40.4477 260 41L262 41ZM260 45C260 45.5523 260.448 46 261 46C261.552 46 262 45.5523 262 45L260 45ZM262 49C262 48.4477 261.552 48 261 48C260.448 48 260 48.4477 260 49L262 49ZM260 53C260 53.5523 260.448 54 261 54C261.552 54 262 53.5523 262 53L260 53ZM262 57C262 56.4477 261.552 56 261 56C260.448 56 260 56.4477 260 57L262 57ZM260 61C260 61.5523 260.448 62 261 62C261.552 62 262 61.5523 262 61L260 61ZM262 65C262 64.4477 261.552 64 261 64C260.448 64 260 64.4477 260 65L262 65ZM260 69C260 69.5523 260.448 70 261 70C261.552 70 262 69.5523 262 69L260 69ZM262 73C262 72.4477 261.552 72 261 72C260.448 72 260 72.4477 260 73L262 73ZM260 77C260 77.5523 260.448 78 261 78C261.552 78 262 77.5523 262 77L260 77ZM262 81C262 80.4477 261.552 80 261 80C260.448 80 260 80.4477 260 81L262 81ZM260 85C260 85.5523 260.448 86 261 86C261.552 86 262 85.5523 262 85L260 85ZM262 89C262 88.4477 261.552 88 261 88C260.448 88 260 88.4477 260 89L262 89ZM260 93C260 93.5523 260.448 94 261 94C261.552 94 262 93.5523 262 93L260 93ZM262 97C262 96.4477 261.552 96 261 96C260.448 96 260 96.4477 260 97L262 97ZM260 101C260 101.552 260.448 102 261 102C261.552 102 262 101.552 262 101L260 101ZM262 105C262 104.448 261.552 104 261 104C260.448 104 260 104.448 260 105L262 105ZM260 109C260 109.552 260.448 110 261 110C261.552 110 262 109.552 262 109L260 109ZM262 113C262 112.448 261.552 112 261 112C260.448 112 260 112.448 260 113L262 113ZM260 117C260 117.552 260.448 118 261 118C261.552 118 262 117.552 262 117L260 117ZM262 121C262 120.448 261.552 120 261 120C260.448 120 260 120.448 260 121L262 121ZM260 125C260 125.552 260.448 126 261 126C261.552 126 262 125.552 262 125L260 125ZM262 129C262 128.448 261.552 128 261 128C260.448 128 260 128.448 260 129L262 129ZM260 133C260 133.552 260.448 134 261 134C261.552 134 262 133.552 262 133L260 133ZM262 137C262 136.448 261.552 136 261 136C260.448 136 260 136.448 260 137L262 137ZM260 141C260 141.552 260.448 142 261 142C261.552 142 262 141.552 262 141L260 141ZM262 145C262 144.448 261.552 144 261 144C260.448 144 260 144.448 260 145L262 145ZM260 149C260 149.552 260.448 150 261 150C261.552 150 262 149.552 262 149L260 149ZM262 153C262 152.448 261.552 152 261 152C260.448 152 260 152.448 260 153L262 153ZM260 157C260 157.552 260.448 158 261 158C261.552 158 262 157.552 262 157L260 157ZM262 161C262 160.448 261.552 160 261 160C260.448 160 260 160.448 260 161L262 161ZM260 165C260 165.552 260.448 166 261 166C261.552 166 262 165.552 262 165L260 165ZM262 169C262 168.448 261.552 168 261 168C260.448 168 260 168.448 260 169L262 169ZM260 3L260 5L262 5L262 3L260 3ZM260 9L260 13L262 13L262 9L260 9ZM260 17L260 21L262 21L262 17L260 17ZM260 25L260 29L262 29L262 25L260 25ZM260 33L260 37L262 37L262 33L260 33ZM260 41L260 45L262 45L262 41L260 41ZM260 49L260 53L262 53L262 49L260 49ZM260 57L260 61L262 61L262 57L260 57ZM260 65L260 69L262 69L262 65L260 65ZM260 73L260 77L262 77L262 73L260 73ZM260 81L260 85L262 85L262 81L260 81ZM260 89L260 93L262 93L262 89L260 89ZM260 97L260 101L262 101L262 97L260 97ZM260 105L260 109L262 109L262 105L260 105ZM260 113L260 117L262 117L262 113L260 113ZM260 121L260 125L262 125L262 121L260 121ZM260 129L260 133L262 133L262 129L260 129ZM260 137L260 141L262 141L262 137L260 137ZM260 145L260 149L262 149L262 145L260 145ZM260 153L260 157L262 157L262 153L260 153ZM260 161L260 165L262 165L262 161L260 161ZM260 169L260 171L262 171L262 169L260 169Z" fill="#FFC107"/>
</svg>

<svg xmlns="http://www.w3.org/2000/svg" width="200" height="172" fill="none" viewBox="0 0 269 172"><path stroke="#FFC107" stroke-dasharray="4 4" stroke-linecap="round" stroke-width="2" d="M1 1h258"/><path fill="#FFC107" d="M260.293 171.707a.999.999 0 0 0 1.414 0l6.364-6.364a.999.999 0 1 0-1.414-1.414L261 169.586l-5.657-5.657a.999.999 0 1 0-1.414 1.414zM260 5a1 1 0 0 0 2 0zm2 4a1 1 0 0 0-2 0zm-2 4a1 1 0 0 0 2 0zm2 4a1 1 0 0 0-2 0zm-2 4a1 1 0 0 0 2 0zm2 4a1 1 0 0 0-2 0zm-2 4a1 1 0 0 0 2 0zm2 4a1 1 0 0 0-2 0zm-2 4a1 1 0 0 0 2 0zm2 4a1 1 0 0 0-2 0zm-2 4a1 1 0 0 0 2 0zm2 4a1 1 0 0 0-2 0zm-2 4a1 1 0 0 0 2 0zm2 4a1 1 0 0 0-2 0zm-2 4a1 1 0 0 0 2 0zm2 4a1 1 0 0 0-2 0zm-2 4a1 1 0 0 0 2 0zm2 4a1 1 0 0 0-2 0zm-2 4a1 1 0 0 0 2 0zm2 4a1 1 0 0 0-2 0zm-2 4a1 1 0 0 0 2 0zm2 4a1 1 0 0 0-2 0zm-2 4a1 1 0 0 0 2 0zm2 4a1 1 0 0 0-2 0zm-2 4a1 1 0 0 0 2 0zm2 4a1 1 0 0 0-2 0zm-2 4a1 1 0 0 0 2 0zm2 4a1 1 0 0 0-2 0zm-2 4a1 1 0 0 0 2 0zm2 4a1 1 0 0 0-2 0zm-2 4a1 1 0 0 0 2 0zm2 4a1 1 0 0 0-2 0zm-2 4a1 1 0 0 0 2 0zm2 4a1 1 0 0 0-2 0zm-2 4a1 1 0 0 0 2 0zm2 4a1 1 0 0 0-2 0zm-2 4a1 1 0 0 0 2 0zm2 4a1 1 0 0 0-2 0zm-2 4a1 1 0 0 0 2 0zm2 4a1 1 0 0 0-2 0zm-2 4a1 1 0 0 0 2 0zm2 4a1 1 0 0 0-2 0zM260 3v2h2V3zm0 6v4h2V9zm0 8v4h2v-4zm0 8v4h2v-4zm0 8v4h2v-4zm0 8v4h2v-4zm0 8v4h2v-4zm0 8v4h2v-4zm0 8v4h2v-4zm0 8v4h2v-4zm0 8v4h2v-4zm0 8v4h2v-4zm0 8v4h2v-4zm0 8v4h2v-4zm0 8v4h2v-4zm0 8v4h2v-4zm0 8v4h2v-4zm0 8v4h2v-4zm0 8v4h2v-4zm0 8v4h2v-4zm0 8v4h2v-4zm0 8v2h2v-2z"/></svg>
